src/img/logo.svg

<svg xmlns="http://www.w3.org/2000/svg" width="160" height="160" fill="none" style=""><rect id="backgroundrect" width="100%" height="100%" x="0" y="0" fill="none" stroke="none" style="" class=""/>           <g class="currentLayer" style=""><title>Layer 1</title><path fill-rule="evenodd" clip-rule="evenodd" d="M34.174438039191514,14.554525334050984 C28.474868966418335,18.51966419702409 23.32093126672263,23.207744478304267 18.846841652713778,28.485109811723888 C37.13003426708612,26.796291071123548 60.3581705549301,29.553924732753018 87.32580994333554,42.96962303115024 C116.12364101392404,57.2952706765553 139.31297436971653,57.77963627399552 155.45164764904504,54.682391774488174 C153.98717559338442,50.27117677128655 152.14343873984868,46.03159049451016 149.95987744031768,42.001288207462444 C131.4854588774369,43.93993971080138 107.80132837987881,41.37383260946908 80.19945626225365,27.64313812425863 C62.67200453188246,18.923764627949062 47.2217446671844,15.331967791349902 34.174438039191514,14.554525334050984 zM139.16796135876427,26.7182852204065 C124.57861664974702,10.500163315608322 103.37683799626434,0.29362492296824566 79.77875917553503,0.29362492296824566 C72.84881047906701,0.29362492296824566 66.12482806463831,1.173993087867249 59.71477491567768,2.828339425841252 C68.39643297796172,5.185182356004515 77.61910111956762,8.633215361023016 87.32580994333554,13.462126327058115 C107.53440882675243,23.51513033821826 124.98138630379297,26.752016408902538 139.16796135876427,26.7182852204065 zM158.90208085744453,70.16623604486898 C139.40500185743622,73.99676725081204 112.48158346962336,73.20997043336615 80.19945626225365,57.150595191231496 C50.019220938906074,42.136847155354886 25.9983335782767,42.3259162142575 9.797790736857857,45.90792268239776 C8.961575599526075,46.09263165818102 8.145040799394955,46.28685354258832 7.348226175203768,46.48900285084897 C5.227171857591503,51.07858489075117 3.534081212741169,55.90480053267613 2.3192705683540558,60.91651789276969 C3.6167545644796593,60.57167495514857 4.957503431455303,60.24387597881217 6.340823975217642,59.93787741807252 C25.99490744669926,55.592460032853786 53.76446081792279,55.781132720563726 87.32580994333554,72.47708009812311 C117.50644365407585,87.49082813399971 141.5272114984874,87.30175907509712 157.72803321108114,83.71975260695686 C158.2829868491484,83.59727390842247 158.82997273936112,83.4704351267687 159.36779571954116,83.3396326331883 C159.4267570536646,82.08987426270625 159.45623772072634,80.83218846837082 159.45623772072634,79.56776436376006 C159.45623772072634,76.38688554259977 159.2681988713597,73.24960755263297 158.90208085744453,70.16623604486898 zM156.7663260450407,100.06927156212444 C137.4584810565772,103.4277246776 111.31908905764901,102.13872555904382 80.19945626225365,86.65805225820435 C50.019220938906074,71.64430422232775 25.9983335782767,71.83337328123037 9.797790736857857,75.41537974937063 C6.2017469364170115,76.21010399066986 2.966797484869044,77.17843881435766 0.11311273590767058,78.20068012024831 C0.10533223012773253,78.65531787823846 0.10143998530079994,79.11114474980658 0.10143998530079994,79.56776436376006 C0.10143998530079994,123.34973719228384 35.77420245342187,158.84200289735006 79.77875917553503,158.84200289735006 C116.65787850756955,158.84200289735006 147.6850854278525,133.91382221927003 156.7663260450407,100.06927156212444 z" class="ccustom" fill="#ff0000" stop-color="#ff0000" id="svg_10"/></g></svg>

<svg xmlns="http://www.w3.org/2000/svg" width="160" height="160" fill="none"><rect width="100%" height="100%"/><g class="currentLayer"><path fill-rule="evenodd" clip-rule="evenodd" d="M34.174 14.555a79.988 79.988 0 0 0-15.327 13.93c18.283-1.689 41.511 1.069 68.479 14.485 28.798 14.325 51.987 14.81 68.126 11.712a78.62 78.62 0 0 0-5.492-12.68c-18.475 1.938-42.159-.628-69.76-14.359-17.528-8.72-32.978-12.311-46.026-13.088zm104.994 12.163C124.578 10.5 103.377.294 79.778.294a80.2 80.2 0 0 0-20.063 2.534c8.681 2.357 17.904 5.805 27.61 10.634 20.21 10.053 37.656 13.29 51.843 13.256zm19.734 43.448c-19.497 3.83-46.42 3.044-78.703-13.015C50.02 42.137 26 42.326 9.798 45.908c-.836.185-1.653.379-2.45.581A78.414 78.414 0 0 0 2.32 60.917a98.38 98.38 0 0 1 4.022-.98c19.654-4.345 47.423-4.156 80.985 12.54 30.18 15.014 54.201 14.825 70.402 11.243.555-.123 1.102-.25 1.64-.38a80.041 80.041 0 0 0-.466-13.174zm-2.136 29.903c-19.308 3.359-45.447 2.07-76.567-13.41C50.02 71.643 26 71.832 9.798 75.414A79.759 79.759 0 0 0 .113 78.2c-.008.454-.012.91-.012 1.367 0 43.782 35.673 79.274 79.678 79.274 36.879 0 67.906-24.928 76.987-58.773z" class="ccustom" fill="red" stop-color="red"/></g></svg>
